X: 237
T:The Conundrum (in D, for the flute)
M:2/4
L:1/16
R:march
Z: Jack Campin
K:D Mixolydian
   D&gt;E|F2D&gt;F  A&gt;BF2 |D&gt;FA&gt;d B2A&gt;B |d2A&gt;B A&gt;BF2|D&gt;FA&gt;F E2D&gt;E  |
       F2D&gt;F  A&gt;BF2 |D&gt;FA&gt;d B2A&gt;B |d2A&gt;B A&gt;BF2|E2D2   D2    :|
   B&gt;c|d2A&gt;B  d&gt;Ad2 |A&gt;Bd&gt;A B2A&gt;B |d2A&gt;B A&gt;BF2|D&gt;FA&gt;F E2[1B&gt;c|
       d2A&gt;B  d&gt;Ad2 |A&gt;Bd&gt;A B2A&gt;B |d2A&gt;B A&gt;BF2|E2D2   D2    :|
[2 D&gt;E|F2D&gt;F  A&gt;BF2 |D&gt;FA&gt;d B2A&gt;B |d2A&gt;B A&gt;BF2|E2D2   D2    ||
   A2 |D&gt;EF2  D&gt;EF&lt;D|F&lt;AD&gt;E F2A2  |B&gt;cd2 A&gt;BF2|D&gt;FA&gt;F E2A2   |
       D&gt;EF2  D&gt;EF&lt;D|F&lt;AD&gt;E F2A2  |B&gt;cd2 A&gt;BF2|E2D2   D2    :|
   d2 |B&gt;Ad&gt;A B2A&lt;d |B2A&lt;d  B&gt;Ad&gt;A|B&gt;cd2 A&gt;BF2|D&gt;FA&gt;F E2[1d2 |
       B&gt;Ad&gt;A B2A&lt;d |B2A&lt;d  B&gt;Ad&gt;A|B&gt;cd2 A&gt;BF2|E2D2   D2    :|
[2 D&gt;E|F2G&gt;F  A&gt;DF2 |G&gt;FA&gt;D B2A&gt;B |d2A&gt;B A&lt;dF2|E2D2   D2    |]

